1demo/assets/media/icons/arrow-right.svg

<svg  viewBox="0 0 334 493" fill="none" xmlns="http://www.w3.org/2000/svg">
<path d="M0.5 472V22C0.5 14 5.5 7.00004 12.5 3.00004C19.5 -0.999964 28.5 4.57317e-05 34.5 5.00005L325.5 230C330.5 234 333.5 240 333.5 247C333.5 254 330.5 260 325.5 264L36.5 487C32.5 491 27.5 493 21.5 493C9.5 493 0.5 484 0.5 472ZM42.5 65V429L277.5 247L42.5 65Z" fill="white"/>
</svg>

<svg viewBox="0 0 334 493" fill="none" xmlns="http://www.w3.org/2000/svg"><path d="M.5 472V22c0-8 5-15 12-19s16-3 22 2l291 225c5 4 8 10 8 17s-3 13-8 17l-289 223c-4 4-9 6-15 6-12 0-21-9-21-21Zm42-407v364l235-182-235-182Z" fill="#fff"/></svg>
